Adwaita++/apps/scalable/menu.svg

<svg enable-background="new" height="128" viewBox="0 0 128 128" width="128" xmlns="http://www.w3.org/2000/svg" xmlns:xlink="http://www.w3.org/1999/xlink">
  <linearGradient id="linearGradient1159" gradientUnits="userSpaceOnUse" x1="-107.99999" x2="-19.99999" y1="-276" y2="-276">
    <stop offset="0" stop-color="#c0bfbc"/>
    <stop offset=".045" stop-color="#fff"/>
    <stop offset=".091" stop-color="#deddda"/>
    <stop offset=".909" stop-color="#deddda"/>
    <stop offset=".955" stop-color="#fff"/>
    <stop offset="1" stop-color="#c0bfbc"/>
  </linearGradient>
  <linearGradient id="linearGradient1103" gradientTransform="matrix(.07621224 -.44419723 .44419725 -.07621223 77.725794 331.83807)" gradientUnits="userSpaceOnUse" x1="128.817" x2="158.518" y1="-97.698" y2="-127.399">
    <stop offset="0" stop-color="#d0bb8e"/>
    <stop offset="1" stop-color="#fff"/>
  </linearGradient>
  <clipPath id="clipPath1062">
    <rect height="108" rx="8" transform="scale(-1)" width="88" x="-108" y="-116"/>
  </clipPath>
  <g transform="translate(0 -172)">
    <g transform="scale(-1)">
      <rect fill="#1a5fb4" height="30.25" rx="8" width="88" x="-108" y="-294"/>
      <rect fill="url(#linearGradient1159)" height="40" rx="8" width="88" x="-108" y="-292"/>
      <rect fill="#f6f5f4" height="108" rx="8" width="88" x="-108" y="-288"/>
    </g>
    <path clip-path="url(#clipPath1062)" d="m100 16-68 68v20h22l68-68-7.86719-5.761719-.0742-.07227-8.22461-8.22461z" opacity=".2" transform="translate(0 172)"/>
    <rect fill="#4d4d4d" height="8.278" opacity=".1" rx=".857" ry=".859" width="62.084" x="23.76" y="249.02"/>
    <path d="m30.583986 246c-1.422973 0-2.583984 1.16101-2.583984 2.58398v8.83204c-.0019 1.42137 1.162609 2.58588 2.583984 2.58398h1.082031l-.666016 2h2l.666016-2h3.167969l.666016 2h2l-.666016-2h.582032c1.422024.002 2.586952-1.16368 2.583984-2.58594v-5.49609-.50391h-1.005859v.50391 5.49805a.50281277.50281277 0 0 0 0 .002c.0018.87799-.698174 1.578-1.576172 1.57617a.50281277.50281277 0 0 0 -.002 0h-8.831985a.50281277.50281277 0 0 0 -.0019 0c-.877998.002-1.578004-.69818-1.576172-1.57617a.50281277.50281277 0 0 0 0-.002v-8.83204c0-.88354.69458-1.57812 1.578125-1.57812h5.498044.503906v-1.00586h-.503906zm10.310547.5332a1.761 1.761 0 0 0 -1.201172.4336l-4.359375 4.35937a2.968 2.968 0 0 0 -1.333985-.32617 3 3 0 0 0 -3 3v3h3a3 3 0 0 0 3.000001-3c0-.571-.168313-1.09969-.445313-1.55469l5.445313-5.44531a1.627 1.627 0 0 0 -1.105469-.4668z" fill="#4d4d4d"/>
    <path d="m32 276v-20l20 20z" fill="url(#linearGradient1103)"/>
    <path d="m31.999996 276 .000004-8 8 8z" fill="#424048"/>
    <rect fill="#005aff" height="8.278" opacity=".25" rx=".857" ry=".859" width="62.084" x="23.76" y="209.02"/>
    <rect fill="#4d4d4d" height="8.278" opacity=".1" rx=".857" ry=".859" width="62.084" x="23.76" y="229.02"/>
    <path d="m50 274-16-16 67.94696-67.94695 16 16z" fill="#f6d32d"/>
    <path d="m37.887772 261.88776-5.887772-5.88776 68.00001-67.99999 5.83472 5.9408z" fill="#f9f06b"/>
    <path d="m46.112246 270.11223 5.887754 5.88777 68-68-5.9408-5.83472z" fill="#e5a50a"/>
    <g fill="#4d4d4d" transform="translate(28 206)">
      <path d="m7.467 0h1.066c.591 0 1.067.476 1.067 1.067v1.066c0 .591-.476 1.067-1.067 1.067h-1.066c-.591 0-1.067-.476-1.067-1.067v-1.066c0-.591.476-1.067 1.067-1.067zm0 12.8h1.066c.591 0 1.067.476 1.067 1.067v1.066c0 .591-.476 1.067-1.067 1.067h-1.066c-.591 0-1.067-.476-1.067-1.067v-1.066c0-.591.476-1.067 1.067-1.067zm-5.501-10.08.754-.754a1.064 1.064 0 0 1 1.509 0l.754.754c.418.418.418 1.09 0 1.509l-.754.754a1.064 1.064 0 0 1 -1.509 0l-.754-.754a1.064 1.064 0 0 1 0-1.509zm9.051 9.051.754-.754a1.064 1.064 0 0 1 1.509 0l.754.754c.418.418.418 1.09 0 1.509l-.754.754a1.064 1.064 0 0 1 -1.509 0l-.754-.754a1.064 1.064 0 0 1 0-1.509zm-11.017-3.238v-1.066c0-.591.476-1.067 1.067-1.067h1.066c.591 0 1.067.476 1.067 1.067v1.066c0 .591-.476 1.067-1.067 1.067h-1.066c-.591 0-1.067-.476-1.067-1.067zm12.8 0v-1.066c0-.591.476-1.067 1.067-1.067h1.066c.591 0 1.067.476 1.067 1.067v1.066c0 .591-.476 1.067-1.067 1.067h-1.066c-.591 0-1.067-.476-1.067-1.067zm-10.08 5.501-.754-.754a1.064 1.064 0 0 1 0-1.509l.754-.754a1.064 1.064 0 0 1 1.509 0l.754.754c.418.418.418 1.09 0 1.509l-.754.754a1.064 1.064 0 0 1 -1.509 0zm9.051-9.051-.754-.754a1.064 1.064 0 0 1 0-1.509l.754-.754a1.064 1.064 0 0 1 1.509 0l.754.754c.418.418.418 1.09 0 1.509l-.754.754a1.064 1.064 0 0 1 -1.509 0z"/>
      <path d="m8 1.5c-3.572 0-6.5 2.928-6.5 6.5s2.928 6.5 6.5 6.5 6.5-2.928 6.5-6.5-2.928-6.5-6.5-6.5zm0 3c1.95 0 3.5 1.55 3.5 3.5s-1.55 3.5-3.5 3.5-3.5-1.55-3.5-3.5 1.55-3.5 3.5-3.5z"/>
    </g>
    <g fill="#474747" transform="translate(28 226)">
      <path d="m8 0c-4.415 0-8 3.585-8 8s3.585 8 8 8 8-3.585 8-8-3.585-8-8-8zm0 2c3.341 0 6 2.659 6 6s-2.659 6-6 6-6-2.659-6-6 2.659-6 6-6z"/>
      <path d="m7.338 5a2.344 2.344 0 0 0 -2.338 2.338v1.324a2.344 2.344 0 0 0 2.338 2.338h1.324a2.344 2.344 0 0 0 2.338-2.338v-1.324a2.344 2.344 0 0 0 -2.338-2.338zm0 1h1.324c.75 0 1.338.588 1.338 1.338v1.324c0 .75-.588 1.338-1.338 1.338h-1.324c-.75 0-1.338-.588-1.338-1.338v-1.324c0-.75.588-1.338 1.338-1.338z"/>
      <path d="m4.719 1.438a5.881 5.881 0 0 0 -3.282 3.312l3.75 1.875c.252-.64.743-1.17 1.375-1.438zm6.562 0-1.844 3.75a2.574 2.574 0 0 1 1.376 1.437l3.75-1.875a5.881 5.881 0 0 0 -3.282-3.313zm-6.094 8-3.75 1.874a5.904 5.904 0 0 0 3.282 3.25l1.875-3.75a2.59 2.59 0 0 1 -1.407-1.374zm5.625 0a2.59 2.59 0 0 1 -1.406 1.374l1.875 3.75a5.904 5.904 0 0 0 3.281-3.25z"/>
    </g>
    <rect fill="#4d4d4d" height="8.278" opacity=".1" rx=".857" ry=".859" width="62.084" x="23.76" y="189.02"/>
    <path d="m505.51367 180.04102c-.11528-.008-.25052.002-.41015.0156l-7.20899 1.125c-.81332.0828-.90176.46246-.89453.93554v9.51953c-.41338-.27155-.85577-.46484-1.44531-.46484-.75911 0-1.21229.29098-1.48633.67383-.27403.38285-.36524.86524-.36524 1.23828 0 .44983.15511.92907.48829 1.29492s.84551.62304 1.58203.62305c.83169 0 1.41537-.23199 1.74609-.68555.26039-.35711.40565-.83534.45703-1.42383.007-.0714.0111-.14515.0156-.2207.004-.0599.003-.1018.004-.17188h.00384v-7.70312c.0221-.61938.58398-.71094.58398-.71094l5.85352-.91406c.56193-.17179.5625.52343.5625.52343v6.94141c-.41338-.27156-.85577-.46484-1.44531-.46485-.75911 0-1.21229.29098-1.48633.67383-.27403.38285-.36524.86525-.36524 1.23828 0 .44983.15511.92907.48829 1.29493.33318.36585.84551.62303 1.58203.62304.83169 0 1.41537-.23198 1.74609-.68554.26039-.35711.40565-.83535.45703-1.42383.007-.0714.0111-.14515.0156-.22071.004-.0599.003-.1018.004-.17187h.00384v-10.56836c.0119-.68564-.14049-.86619-.48633-.89062z" fill="#4d4d4d" transform="translate(-465.70312 6.99807)"/>
  </g>
</svg>

<svg xmlns="http://www.w3.org/2000/svg" xmlns:xlink="http://www.w3.org/1999/xlink" style="enable-background:new" width="128" height="128" version="1.0" viewBox="0 0 128 128">
 <title id="title4162">
  Adwaita Icon Template
 </title>
 <defs>
  <linearGradient id="linearGradient1038">
   <stop style="stop-color:#c0bfbc" id="stop1026" offset="0"/>
   <stop id="stop1028" offset=".045" style="stop-color:#ffffff"/>
   <stop id="stop1030" offset=".091" style="stop-color:#deddda"/>
   <stop id="stop1032" offset=".909" style="stop-color:#deddda"/>
   <stop style="stop-color:#ffffff" id="stop1034" offset=".955"/>
   <stop style="stop-color:#c0bfbc" id="stop1036" offset="1"/>
  </linearGradient>
  <clipPath id="clipPath2213" clipPathUnits="userSpaceOnUse">
   <rect width="16" height="56" x="160" y="-188" rx="8" ry="8" style="fill:none;stroke:#000000"/>
  </clipPath>
  <linearGradient id="linearGradient1005">
   <stop style="stop-color:#d0bb8e" id="stop1001" offset="0"/>
   <stop style="stop-color:#ffffff" id="stop1003" offset="1"/>
  </linearGradient>
  <linearGradient id="linearGradient1351-3">
   <stop id="stop1347" offset="0" style="stop-color:#d5d3cf"/>
   <stop id="stop1349-6" offset="1" style="stop-color:#ffffff"/>
  </linearGradient>
  <linearGradient id="linearGradient1159" x1="28" x2="116" y1="-276" y2="-276" gradientTransform="translate(-135.99999)" gradientUnits="userSpaceOnUse" xlink:href="#linearGradient1038"/>
  <linearGradient id="linearGradient1103" x1="128.817" x2="158.518" y1="-97.698" y2="-127.399" gradientTransform="matrix(0.07621224,-0.44419723,0.44419725,-0.07621223,77.725794,331.83807)" gradientUnits="userSpaceOnUse" xlink:href="#linearGradient1005"/>
  <clipPath id="clipPath1609-7" clipPathUnits="userSpaceOnUse">
   <path style="fill:#e74747" d="m 252,116 28,-28 v -8 h -36 v 36 z"/>
  </clipPath>
  <linearGradient id="linearGradient1130" x1="344" x2="340" y1="76" y2="72" gradientTransform="matrix(0.25,0,0,0.25,180,83)" gradientUnits="userSpaceOnUse" xlink:href="#linearGradient1351-3"/>
  <clipPath id="clipPath1062" clipPathUnits="userSpaceOnUse">
   <rect style="fill:#f6f5f4" width="88" height="108" x="-108" y="-116" rx="8" ry="8" transform="scale(-1)"/>
  </clipPath>
 </defs>
 <g id="layer1" transform="translate(0,-172)">
  <g style="display:none" id="layer2">
   <g style="enable-background:new">
    <rect style="fill:#f0f0f0" width="128" height="128" x="0" y="172"/>
    <circle cx="64" cy="236" r="59.504" style="opacity:0.1;fill:none;stroke:#000000;stroke-width:0.99000001;stroke-dasharray:0.99000001, 0.99000001"/>
    <rect width="87.01" height="111.01" x="20.5" y="180.5" rx="8.701" ry="7.929" style="opacity:0.1;fill:none;stroke:#000000;stroke-width:0.99000001;stroke-dasharray:0.99000001, 0.99000001"/>
    <rect width="103.01" height="103.01" x="12.49" y="184.5" rx="7.924" ry="7.924" style="opacity:0.1;fill:none;stroke:#000000;stroke-width:0.99000001;stroke-dasharray:0.99000001, 0.99000001"/>
    <rect width="111.01" height="87.01" x="8.49" y="200.5" rx="7.929" ry="8.701" style="opacity:0.1;fill:none;stroke:#000000;stroke-width:0.99000001;stroke-dasharray:0.99000001, 0.99000001"/>
    <path d="M 2.6203015e-5,288.99999 H 128.00003" style="fill:none;stroke:#62a0ea;stroke-width:2"/>
   </g>
  </g>
  <g id="layer9">
   <rect width="88" height="30.25" x="-108" y="-294" rx="8" ry="8" transform="scale(-1)" style="fill:#1a5fb4"/>
   <rect style="fill:url(#linearGradient1159)" width="88" height="40" x="-108" y="-292" rx="8" ry="8" transform="scale(-1)"/>
   <rect width="88" height="108" x="-108" y="-288" rx="8" ry="8" transform="scale(-1)" style="fill:#f6f5f4"/>
   <path d="M 100,16 32,84 v 20 h 22 l 68,-68 -7.86719,-5.761719 -0.0742,-0.07227 -8.22461,-8.22461 z" clip-path="url(#clipPath1062)" transform="translate(0,172)" style="opacity:0.2"/>
   <rect width="62.084" height="8.278" x="23.76" y="249.02" rx=".857" ry=".859" style="opacity:0.1;fill:#4d4d4d"/>
   <path style="fill:#4d4d4d" d="m 30.583986,246 c -1.422973,0 -2.583984,1.16101 -2.583984,2.58398 v 8.83204 c -0.0019,1.42137 1.162609,2.58588 2.583984,2.58398 h 1.082031 l -0.666016,2 h 2 l 0.666016,-2 h 3.167969 l 0.666016,2 h 2 l -0.666016,-2 h 0.582032 c 1.422024,0.002 2.586952,-1.16368 2.583984,-2.58594 v -5.49609 -0.50391 h -1.005859 v 0.50391 5.49805 a 0.50281277,0.50281277 0 0 0 0,0.002 c 0.0018,0.87799 -0.698174,1.578 -1.576172,1.57617 a 0.50281277,0.50281277 0 0 0 -0.002,0 h -8.831985 a 0.50281277,0.50281277 0 0 0 -0.0019,0 c -0.877998,0.002 -1.578004,-0.69818 -1.576172,-1.57617 a 0.50281277,0.50281277 0 0 0 0,-0.002 v -8.83204 c 0,-0.88354 0.69458,-1.57812 1.578125,-1.57812 h 5.498044 0.503906 V 246 h -0.503906 z m 10.310547,0.5332 a 1.761,1.761 0 0 0 -1.201172,0.4336 l -4.359375,4.35937 A 2.968,2.968 0 0 0 34.000001,251 a 3,3 0 0 0 -3,3 v 3 h 3 a 3,3 0 0 0 3.000001,-3 c 0,-0.571 -0.168313,-1.09969 -0.445313,-1.55469 L 42.000002,247 a 1.627,1.627 0 0 0 -1.105469,-0.4668 z"/>
   <path style="fill:url(#linearGradient1103)" d="m 32,276 v -20 l 20,20 z"/>
   <path d="m 31.999996,276 4e-6,-8 8,8 z" style="fill:#424048"/>
   <rect width="62.084" height="8.278" x="23.76" y="209.02" rx=".857" ry=".859" style="opacity:0.25;fill:#005aff"/>
   <rect style="opacity:0.1;fill:#4d4d4d" width="62.084" height="8.278" x="23.76" y="229.02" rx=".857" ry=".859"/>
   <path d="m 50,274 -16,-16 67.94696,-67.94695 16,16 z" style="fill:#f6d32d"/>
   <path d="M 37.887772,261.88776 32,256 l 68.00001,-67.99999 5.83472,5.9408 z" style="fill:#f9f06b"/>
   <path d="M 46.112246,270.11223 52,276 l 68,-68 -5.9408,-5.83472 z" style="fill:#e5a50a"/>
   <g style="fill:#4d4d4d" transform="translate(28,206)">
    <path d="M 7.467,0 H 8.533 C 9.124,0 9.6,0.476 9.6,1.067 V 2.133 C 9.6,2.724 9.124,3.2 8.533,3.2 H 7.467 C 6.876,3.2 6.4,2.724 6.4,2.133 V 1.067 C 6.4,0.476 6.876,0 7.467,0 Z m 0,12.8 h 1.066 c 0.591,0 1.067,0.476 1.067,1.067 v 1.066 C 9.6,15.524 9.124,16 8.533,16 H 7.467 C 6.876,16 6.4,15.524 6.4,14.933 V 13.867 C 6.4,13.276 6.876,12.8 7.467,12.8 Z M 1.966,2.72 2.72,1.966 a 1.064,1.064 0 0 1 1.509,0 L 4.983,2.72 c 0.418,0.418 0.418,1.09 0,1.509 L 4.229,4.983 a 1.064,1.064 0 0 1 -1.509,0 L 1.966,4.229 a 1.064,1.064 0 0 1 0,-1.509 z m 9.051,9.051 0.754,-0.754 a 1.064,1.064 0 0 1 1.509,0 l 0.754,0.754 c 0.418,0.418 0.418,1.09 0,1.509 l -0.754,0.754 a 1.064,1.064 0 0 1 -1.509,0 L 11.017,13.28 a 1.064,1.064 0 0 1 0,-1.509 z M 0,8.533 V 7.467 C 0,6.876 0.476,6.4 1.067,6.4 H 2.133 C 2.724,6.4 3.2,6.876 3.2,7.467 V 8.533 C 3.2,9.124 2.724,9.6 2.133,9.6 H 1.067 C 0.476,9.6 0,9.124 0,8.533 Z m 12.8,0 V 7.467 C 12.8,6.876 13.276,6.4 13.867,6.4 h 1.066 C 15.524,6.4 16,6.876 16,7.467 V 8.533 C 16,9.124 15.524,9.6 14.933,9.6 H 13.867 C 13.276,9.6 12.8,9.124 12.8,8.533 Z M 2.72,14.034 1.966,13.28 a 1.064,1.064 0 0 1 0,-1.509 L 2.72,11.017 a 1.064,1.064 0 0 1 1.509,0 l 0.754,0.754 c 0.418,0.418 0.418,1.09 0,1.509 l -0.754,0.754 a 1.064,1.064 0 0 1 -1.509,0 z M 11.771,4.983 11.017,4.229 a 1.064,1.064 0 0 1 0,-1.509 l 0.754,-0.754 a 1.064,1.064 0 0 1 1.509,0 l 0.754,0.754 c 0.418,0.418 0.418,1.09 0,1.509 L 13.28,4.983 a 1.064,1.064 0 0 1 -1.509,0 z"/>
    <path d="M 8,1.5 C 4.428,1.5 1.5,4.428 1.5,8 c 0,3.572 2.928,6.5 6.5,6.5 3.572,0 6.5,-2.928 6.5,-6.5 C 14.5,4.428 11.572,1.5 8,1.5 Z m 0,3 c 1.95,0 3.5,1.55 3.5,3.5 0,1.95 -1.55,3.5 -3.5,3.5 C 6.05,11.5 4.5,9.95 4.5,8 4.5,6.05 6.05,4.5 8,4.5 Z" font-weight="400" overflow="visible"/>
   </g>
   <g style="fill:#474747" transform="translate(28,226)">
    <path d="M 8,0 C 3.585,0 0,3.585 0,8 c 0,4.415 3.585,8 8,8 4.415,0 8,-3.585 8,-8 C 16,3.585 12.415,0 8,0 Z m 0,2 c 3.341,0 6,2.659 6,6 0,3.341 -2.659,6 -6,6 C 4.659,14 2,11.341 2,8 2,4.659 4.659,2 8,2 Z" font-weight="400" overflow="visible"/>
    <path d="M 7.338,5 A 2.344,2.344 0 0 0 5,7.338 V 8.662 A 2.344,2.344 0 0 0 7.338,11 H 8.662 A 2.344,2.344 0 0 0 11,8.662 V 7.338 A 2.344,2.344 0 0 0 8.662,5 Z m 0,1 H 8.662 C 9.412,6 10,6.588 10,7.338 V 8.662 C 10,9.412 9.412,10 8.662,10 H 7.338 C 6.588,10 6,9.412 6,8.662 V 7.338 C 6,6.588 6.588,6 7.338,6 Z" font-weight="400" overflow="visible"/>
    <path d="M 4.719,1.438 A 5.881,5.881 0 0 0 1.437,4.75 l 3.75,1.875 C 5.439,5.985 5.93,5.455 6.562,5.187 Z m 6.562,0 -1.844,3.75 a 2.574,2.574 0 0 1 1.376,1.437 L 14.563,4.75 A 5.881,5.881 0 0 0 11.281,1.437 Z m -6.094,8 -3.75,1.874 a 5.904,5.904 0 0 0 3.282,3.25 l 1.875,-3.75 A 2.59,2.59 0 0 1 5.187,9.438 Z m 5.625,0 a 2.59,2.59 0 0 1 -1.406,1.374 l 1.875,3.75 a 5.904,5.904 0 0 0 3.281,-3.25 z"/>
   </g>
   <rect style="opacity:0.1;fill:#4d4d4d" width="62.084" height="8.278" x="23.76" y="189.02" rx=".857" ry=".859"/>
   <g transform="translate(-465.70312,6.99807)">
    <path style="fill:#4d4d4d" d="m 505.51367,180.04102 c -0.11528,-0.008 -0.25052,0.002 -0.41015,0.0156 l -7.20899,1.125 c -0.81332,0.0828 -0.90176,0.46246 -0.89453,0.93554 v 9.51953 c -0.41338,-0.27155 -0.85577,-0.46484 -1.44531,-0.46484 -0.75911,0 -1.21229,0.29098 -1.48633,0.67383 -0.27403,0.38285 -0.36524,0.86524 -0.36524,1.23828 0,0.44983 0.15511,0.92907 0.48829,1.29492 0.33318,0.36585 0.84551,0.62304 1.58203,0.62305 0.83169,0 1.41537,-0.23199 1.74609,-0.68555 0.26039,-0.35711 0.40565,-0.83534 0.45703,-1.42383 0.007,-0.0714 0.0111,-0.14515 0.0156,-0.2207 0.004,-0.0599 0.003,-0.1018 0.004,-0.17188 H 498 v -7.70312 c 0.0221,-0.61938 0.58398,-0.71094 0.58398,-0.71094 l 5.85352,-0.91406 c 0.56193,-0.17179 0.5625,0.52343 0.5625,0.52343 v 6.94141 c -0.41338,-0.27156 -0.85577,-0.46484 -1.44531,-0.46485 -0.75911,0 -1.21229,0.29098 -1.48633,0.67383 -0.27403,0.38285 -0.36524,0.86525 -0.36524,1.23828 0,0.44983 0.15511,0.92907 0.48829,1.29493 0.33318,0.36585 0.84551,0.62303 1.58203,0.62304 0.83169,0 1.41537,-0.23198 1.74609,-0.68554 0.26039,-0.35711 0.40565,-0.83535 0.45703,-1.42383 0.007,-0.0714 0.0111,-0.14515 0.0156,-0.22071 0.004,-0.0599 0.003,-0.1018 0.004,-0.17187 H 506 v -10.56836 c 0.0119,-0.68564 -0.14049,-0.86619 -0.48633,-0.89062 z"/>
   </g>
  </g>
 </g>
</svg>
